X:1
T:sound of silence
M:4/4
L:1/8
V:1
Q:1/4=80
K:C
|"Am"z2A,A,CCEE|"G"D8|"G"zG,G,G,B,B,DD|"Am"C8|
|"C"zCCCEEGG|"F"A2-AG-G4|"C"zCCCEEGG|"F"A2-AG-G4|
|"C"z2CCAAAA|"F"A2ABcccc|"F"BA3G4-|"C"G2AGE4-|
|"Am"E4zCCC|"G"G6zB,|"Am"CA,3-A,4|
|"Am"z2A,A,CCEE|"G"D8|"G"zB,B,B,B,B,DD|"Am"C8|
|"C"zCCCEEGG|"F"A2AG-G4|"C"zCCCEEGG|"F"A2AG-G4|
|"F"z2CCA2AA-|"F"A2ABc2cc|"F"BA-AG-G4|"C"G2AGE4-|
|"Am"E4zCCC|"G"G6zB,|"Am"CA,-A,6|